X:1
T:Precious Memories
C:J B F Wright
M:4/4
L:1/8
K:D
%%continueall 1
%%partsbox 1
|"D""^Verses"A,3 A, B, D3|"G"D3 D B, "D"A,3|F3 E DD E3/2 F/2
w:1Pre-cious mem-'ries, un-seen an-gels, Sent from some-where to my
w:2Pre-cious fa-ther, lov-ing mo-ther, Fly a-cross the lone-ly
w:3In the still-ness of the mid-night, E-chos from the past I
w:4As I tra-vel on life's path-way, Know-ing not what~the years may
|"A"E6 z2|"D"A,3 A, B, D3|"G"D3 D "D"B, A,3|F3 D "A"ED F3/2E/2|"D"D6 z2
w:soul, How they lin-ger, ev-er near me, And the sa-cred past un-fold.
w:years, And old home scenes of my child-hood, In fond mem-o-ry ap-pears.
w:hear, Old-time sing-ing, glad-ness bring-ing, From that love-ly land some-where.
w:hold, As I pon-der, hope grows fond-er, Pre-cious mem-'ries flood my soul.
|"^Chorus"A3 F A F3|F3 F E D3|"G"D3 D EDED|("D"F4 D2) z2
w:Pre-cious mem-'ries, how they lin-ger, How they ev-er flood my soul,_
|A,3 A, B, D3|"G"D3 D "D"B, A,3|"^TAG"F3 D "A"ED F3/2E/2|"D"D6 z2"||"
w:In the still-ness of the mid-night, Pre-cious, sa-cred scenes un-fold.
